outputs/icons/action/delete_forever_sharp.svg

<svg xmlns="http://www.w3.org/2000/svg" width="1200" height="1200" fill="none"><g clip-path="url(#a)"><path fill="#000" d="M300 1050h600V350H300zm123-456 70.5-70.5 106.5 106 106-106 70.5 70.5-106 106 106 106-70.5 70.5-106-106-106 106-70.5-70.5 106-106zm352-394-50-50H475l-50 50H250v100h700V200z"/></g><defs><clipPath id="a"><path fill="#fff" d="M0 0h1200v1200H0z"/></clipPath></defs></svg>

<svg width="1200" height="1200" viewBox="0 0 1200 1200" fill="none" xmlns="http://www.w3.org/2000/svg"><g clip-path="url(#clip0_117_801)"><path d="M300 1050H900V350H300V1050ZM423 594L493.5 523.5L600 629.5L706 523.5L776.5 594L670.5 700L776.5 806L706 876.5L600 770.5L494 876.5L423.5 806L529.5 700L423 594ZM775 200L725 150H475L425 200H250V300H950V200H775Z" fill="#1D1E23"/></g><defs><clipPath id="clip0_117_801"><path width="24" fill="white" d="M0 0H1200V1200H0V0z"/></clipPath></defs></svg>
